X: 52
T: Song Concerning an Open Grave
N: Derived from pawnee52.krn
O: Oklahoma, U.S.A.
N: from Pawnee Music by Frances Densmore, 1926
Z: transcribed to **kern format by David Huron, August 2000
C: Skidi and Chaui Bands, 1919
L: 1/8
M: 2/4
Q: 1/4=88
K: F clef=treble
%%linebreak <none>
F2F2 | 
D z C3/ A,/[M:3/4] | 
D> C D> C D z[M:2/4] | 
F2F2 | 
D z C A,[M:3/4] | 
D> C D> C D z[M:2/4] | 
D2D2 | 
D A, A, G,[M:3/4] | 
A,2A,2A, z[M:2/4] | 
D2D2 | 
D A, A, G, | 
A,2A,2A, z |]  



